X:159
T:Sheffield Hornpipe TS.159
M:C
L:1/8
Q:1/2=90
S:Thomas Sands’ MS,1810,Lincolnshire
R:.hornpipe
N:Different version to TS.122
O:England;Lincolnshire
Z:vmp.Ruairidh Greig, 2011
K:A
(cd)|edcB AEAc|AEAc ABcd|ecfe dBba|gefg a2(Bc)|
dfbd ceac|Bcdf ecBA|fdcB aecA|EAGBA2:|
|:”q. in ms”A2|GB”tr”B2Ac”tr”c2|Bdce dcBA|(3GAB (3ABc (3Bcd (3cde|dcBA e2>g2|
a2(3fga g2(3efg|f2(3def e2(3cde|dcBA GABc|dfeGA2:|]

